img/svg/envelop.svg

<svg width="20" height="16" viewBox="0 0 20 16" fill="none" xmlns="http://www.w3.org/2000/svg">
<path d="M1.9196 4.84373C2.1726 5.02225 2.93523 5.55248 4.20752 6.43414C5.47985 7.3158 6.45455 7.99466 7.13164 8.47074C7.20603 8.52293 7.36408 8.63637 7.60586 8.81123C7.84767 8.9862 8.0486 9.12759 8.20848 9.23544C8.36848 9.34326 8.5619 9.4642 8.78895 9.59809C9.01591 9.73186 9.22985 9.83248 9.43074 9.89909C9.63167 9.96625 9.81766 9.99952 9.98877 9.99952H9.99998H10.0112C10.1823 9.99952 10.3684 9.96621 10.5693 9.89909C10.7702 9.83248 10.9843 9.73174 11.2111 9.59809C11.4379 9.46405 11.6314 9.34322 11.7914 9.23544C11.9514 9.12759 12.1521 8.9862 12.394 8.81123C12.6358 8.63622 12.794 8.52293 12.8684 8.47074C13.5528 7.99466 15.294 6.78553 18.0915 4.84349C18.6347 4.46419 19.0884 4.00651 19.453 3.47077C19.8178 2.93526 20 2.37349 20 1.78575C20 1.29462 19.8232 0.874192 19.4697 0.524523C19.1163 0.174776 18.6977 0 18.2142 0H1.78564C1.21276 0 0.771891 0.193422 0.463111 0.580267C0.15437 0.967189 0 1.45082 0 2.03113C0 2.49987 0.20468 3.00782 0.613846 3.55466C1.02297 4.10154 1.45837 4.53127 1.9196 4.84373Z" fill="white"/>
<path d="M18.8838 6.03784C16.4435 7.68947 14.5906 8.97306 13.3259 9.88834C12.9018 10.2007 12.5578 10.4446 12.2936 10.6193C12.0293 10.7942 11.678 10.9727 11.2389 11.1549C10.8 11.3374 10.3909 11.4284 10.0114 11.4284H10H9.9888C9.60934 11.4284 9.20006 11.3374 8.76115 11.1549C8.32223 10.9727 7.97061 10.7942 7.70647 10.6193C7.44241 10.4446 7.09826 10.2007 6.6742 9.88834C5.66968 9.15179 3.82075 7.86812 1.12734 6.03784V6.03784C0.69113 5.74729 0 6.03455 0 6.55867V13.9282C0 14.4196 0.174776 14.8398 0.524523 15.1895C0.874191 15.5393 1.29465 15.7142 1.78575 15.7142H18.2144C18.7053 15.7142 19.1258 15.5393 19.4755 15.1895C19.8253 14.8397 20 14.4197 20 13.9282V6.54991C20 6.02935 19.3135 5.74405 18.8838 6.03784V6.03784Z" fill="white"/>
</svg>

<svg width="20" height="16" fill="none" xmlns="http://www.w3.org/2000/svg"><path d="M1.92 4.844c.253.178 1.015.708 2.288 1.59 1.272.882 2.247 1.56 2.924 2.037.074.052.232.165.474.34.242.175.443.317.602.424.16.108.354.23.58.363.228.134.442.234.643.301.2.067.387.1.558.1h.022c.171 0 .357-.033.558-.1a3.43 3.43 0 00.642-.3c.227-.135.42-.256.58-.364.16-.107.361-.249.603-.424s.4-.288.474-.34l5.223-3.628a5.287 5.287 0 001.362-1.372c.365-.536.547-1.098.547-1.685a1.71 1.71 0 00-.53-1.261A1.725 1.725 0 0018.214 0H1.786C1.213 0 .772.193.463.58.154.967 0 1.45 0 2.031c0 .469.205.977.614 1.524.409.547.844.976 1.306 1.289z" fill="#fff"/><path d="M18.884 6.038c-2.44 1.651-4.293 2.935-5.558 3.85a26.33 26.33 0 01-1.032.731 6.37 6.37 0 01-1.055.536c-.439.182-.848.273-1.228.273H9.99c-.38 0-.789-.09-1.228-.273a6.37 6.37 0 01-1.055-.536 26.41 26.41 0 01-1.032-.73c-1.004-.737-2.853-2.02-5.547-3.851C.691 5.748 0 6.035 0 6.558v7.37c0 .492.175.912.525 1.261.35.35.77.525 1.26.525h16.43c.49 0 .91-.175 1.26-.524.35-.35.525-.77.525-1.262V6.55c0-.52-.686-.806-1.116-.512z" fill="#fff"/></svg>
